icon/ir/settings-profiles.svg

<svg stroke-width="1.5" viewBox="0 0 24 24" fill="none" xmlns="http://www.w3.org/2000/svg" height="1em" width="1em">
  <path d="M11.6065 2.34184C11.8322 2.14578 12.1678 2.14578 12.3935 2.34184L14.3418 4.03445C14.4646 4.14111 14.6254 4.19336 14.7874 4.17924L17.3586 3.9551C17.6564 3.92913 17.9279 4.1264 17.9953 4.41768L18.5766 6.93224C18.6133 7.09069 18.7126 7.22748 18.852 7.31129L21.0639 8.64123C21.3201 8.79529 21.4238 9.11447 21.307 9.3897L20.2994 11.7657C20.2359 11.9155 20.2359 12.0845 20.2994 12.2343L21.307 14.6103C21.4238 14.8855 21.3201 15.2047 21.0639 15.3588L18.852 16.6887C18.7126 16.7725 18.6133 16.9093 18.5766 17.0678L17.9953 19.5823C17.9279 19.8736 17.6564 20.0709 17.3586 20.0449L14.7874 19.8208C14.6254 19.8066 14.4646 19.8589 14.3418 19.9655L12.3935 21.6582C12.1678 21.8542 11.8322 21.8542 11.6065 21.6582L9.65816 19.9655C9.53539 19.8589 9.37458 19.8066 9.21256 19.8208L6.64142 20.0449C6.34359 20.0709 6.07208 19.8736 6.00474 19.5823L5.42338 17.0678C5.38675 16.9093 5.28736 16.7725 5.14798 16.6887L2.93615 15.3588C2.67993 15.2047 2.57622 14.8855 2.69295 14.6103L3.70065 12.2343C3.76414 12.0845 3.76414 11.9155 3.70065 11.7657L2.69295 9.3897C2.57622 9.11447 2.67993 8.79529 2.93615 8.64123L5.14798 7.31129C5.28736 7.22748 5.38675 7.09069 5.42338 6.93224L6.00474 4.41768C6.07208 4.1264 6.34359 3.92913 6.64142 3.9551L9.21256 4.17924C9.37458 4.19336 9.53539 4.14111 9.65816 4.03445L11.6065 2.34184Z" stroke="currentColor" stroke-width="1.5"/>
  <path d="M9 13L11 15L16 10" stroke="currentColor" stroke-linecap="round" stroke-linejoin="round"/>
</svg>

<svg width="24" height="24" stroke-width="1.5" fill="none" xmlns="http://www.w3.org/2000/svg"><path d="M11.607 2.342a.6.6 0 0 1 .787 0l1.948 1.692a.6.6 0 0 0 .445.145l2.572-.224a.6.6 0 0 1 .636.463l.582 2.514a.6.6 0 0 0 .275.38l2.212 1.33a.6.6 0 0 1 .243.748l-1.008 2.376a.6.6 0 0 0 0 .468l1.008 2.376a.6.6 0 0 1-.243.749l-2.212 1.33a.6.6 0 0 0-.275.379l-.582 2.514a.6.6 0 0 1-.636.463l-2.572-.224a.6.6 0 0 0-.445.144l-1.949 1.693a.6.6 0 0 1-.787 0l-1.948-1.693a.6.6 0 0 0-.445-.144l-2.572.224a.6.6 0 0 1-.636-.463l-.582-2.514a.6.6 0 0 0-.275-.38l-2.212-1.33a.6.6 0 0 1-.243-.748l1.008-2.376a.6.6 0 0 0 0-.468L2.693 9.39a.6.6 0 0 1 .243-.749l2.212-1.33a.6.6 0 0 0 .275-.379l.582-2.514a.6.6 0 0 1 .636-.463l2.572.224a.6.6 0 0 0 .445-.145l1.949-1.692Z" stroke="currentColor"/><path d="m9 13 2 2 5-5" stroke="currentColor" stroke-linecap="round" stroke-linejoin="round"/></svg>
